src/icons/surrealql.svg

<svg xmlns="http://www.w3.org/2000/svg" width="16" height="16" fill="none"><path fill="#C792EA" d="m8 4.683 3.333 1.846v-.74L8 3.949c-.496.273-2.891 1.598-3.333 1.84.41.228 4.716 2.607 7.333 4.053v.737l-4 2.21-4-2.211v-2.21l4 2.21.667-.368-5.334-2.946v3.684L8 13.525l4.666-2.578V9.474L6 5.788zm-4.667.369v1.475l6.665 3.684-2 1.106L4.667 9.47v.74L8 12.052l3.333-1.841C10.922 9.983 6.617 7.605 4 6.158V5.42l4-2.21 4 2.21v2.21L8 5.42l-.667.37 5.333 2.947V5.052L8 2.474c-.461.255-4.325 2.391-4.667 2.578M8 1 2 4.316v7.368L8 15l6-3.315V4.317zm5.331 10.315L8 14.263l-5.333-2.948v-6.63L8 1.737l5.333 2.948z"/></svg>

<svg width="16" height="16" viewBox="0 0 16 16" fill="none" xmlns="http://www.w3.org/2000/svg">
<path d="M8 4.683L11.333 6.529V5.789L8 3.949C7.504 4.222 5.109 5.547 4.667 5.789C5.077 6.017 9.383 8.396 12 9.842V10.579L8 12.789L4 10.578V8.368L8 10.578L8.667 10.21L3.333 7.264V10.948L8 13.525L12.666 10.947V9.474L6 5.788L8 4.683ZM3.333 5.052V6.527L9.998 10.211L7.998 11.317L4.667 9.47V10.21L8 12.052L11.333 10.211C10.922 9.983 6.617 7.605 4 6.158V5.42L8 3.21L12 5.42V7.63L8 5.42L7.333 5.79L12.666 8.737V5.052L8 2.474C7.539 2.729 3.675 4.865 3.333 5.052ZM8 1L2 4.316V11.684L8 15L14 11.685V4.317L8 1ZM13.331 11.315L8 14.263L2.667 11.315V4.685L8 1.737L13.333 4.685L13.331 11.315Z" fill="#C792EA"/>
</svg>
